Papirus/22x22/panel/telegram-mute-panel.svg

<?xml version="1.0" encoding="UTF-8" standalone="no"?>
<svg xmlns:dc="http://purl.org/dc/elements/1.1/" xmlns:cc="http://creativecommons.org/ns#" xmlns:rdf="http://www.w3.org/1999/02/22-rdf-syntax-ns#" xmlns:svg="http://www.w3.org/2000/svg" xmlns="http://www.w3.org/2000/svg" version="1.0" width="22" height="22" id="svg2817">
    <metadata id="metadata57">
        <rdf:RDF>
            <cc:Work rdf:about="">
                <dc:format>
                    image/svg+xml
                </dc:format>
                <dc:type rdf:resource="http://purl.org/dc/dcmitype/StillImage"/>
                <dc:title/>
            </cc:Work>
        </rdf:RDF>
    </metadata>
    <path id="path4193" d="M 17.933594 3.0039062 C 17.47871 2.9760915 17.231956 3.0555783 10.572266 5.3847656 C 6.78206 6.7104266 3.5955625 7.8506088 3.4921875 7.9179688 C 3.1913925 8.1136567 3 8.4902045 3 8.8828125 C 3 9.7258735 3.3085107 9.9624777 6.3554688 11.449219 C 7.8975937 12.202436 8.9311046 12.751846 9.0566406 12.884766 C 9.1686386 13.002918 9.8215648 14.233321 10.505859 15.619141 C 11.74399 18.121248 12.027126 18.589842 12.472656 18.859375 C 12.945952 19.146643 13.589532 18.978574 13.96875 18.46875 C 14.146593 18.229985 18.926958 4.7257079 18.986328 4.2949219 C 19.041515 3.8941539 18.914423 3.5184787 18.630859 3.2480469 C 18.441731 3.0676812 18.327297 3.0279063 17.933594 3.0039062 z M 6 14 A 2 2 0 0 0 4 16 A 2 2 0 0 0 6 18 A 2 2 0 0 0 8 16 A 2 2 0 0 0 6 14 z " style="fill:#ffffff;opacity:1"/>
</svg>

<?xml version="1.0" encoding="UTF-8" standalone="no"?>
<svg id="svg2817" xmlns:rdf="http://www.w3.org/1999/02/22-rdf-syntax-ns#" xmlns="http://www.w3.org/2000/svg" height="22" width="22" version="1.0" xmlns:cc="http://creativecommons.org/ns#" xmlns:dc="http://purl.org/dc/elements/1.1/">
 <metadata id="metadata57">
  <rdf:RDF>
   <cc:Work rdf:about="">
    <dc:format>image/svg+xml</dc:format>
    <dc:type rdf:resource="http://purl.org/dc/dcmitype/StillImage"/>
    <dc:title/>
   </cc:Work>
  </rdf:RDF>
 </metadata>
 <path id="path4193" fill="#fff" d="m17.934 3.0039c-0.455-0.0278-0.702 0.0517-7.362 2.3809-3.7899 1.3256-6.9764 2.4658-7.0798 2.5332-0.3008 0.1957-0.4922 0.5722-0.4922 0.9648 0 0.8431 0.3085 1.0797 3.3555 2.5662 1.5421 0.753 2.5756 1.303 2.7011 1.436 0.112 0.118 0.765 1.348 1.4494 2.734 1.238 2.502 1.521 2.971 1.967 3.24 0.473 0.288 1.117 0.12 1.496-0.39 0.178-0.239 4.958-13.743 5.017-14.174 0.056-0.4008-0.072-0.7765-0.355-1.047-0.189-0.1803-0.304-0.2201-0.697-0.2441zm-11.934 10.996a2 2 0 0 0 -2 2 2 2 0 0 0 2 2 2 2 0 0 0 2 -2 2 2 0 0 0 -2 -2z"/>
</svg>
